X: 20992
T: Julia Delaney's
R: reel
M: 4/4
K: Ddorian
dcAG ~F2EF|~E2 DE FD D2|dcAG FGAA|Addc d2 fe:|
f2fe fagf|ecgc acgc|f2fe fagf|edcG Add2:|

